X:1
T:Amarilli mia bella
T:Amarilli mia bella
T:Giulio Caccini
T:Source : Le nuove Musische di G.Caccini detto Romano---Firenze---G.Marescotti---1601. Editor : André Vierendeels (08/07/15).
T:Notes : Original clefs : G2, F3 Figures in BC are notated in original print
C:Giulio Caccini
%%score 1 2
L:1/8
Q:1/4=70
M:2/2
K:F
V:1 treble nm="Soprano" snm="S"
V:2 bass nm="BC" snm="BC"
V:1
 d6 A2 | B4 ^F2 G2 | A4 A2 d2 | c2 A2 c3 B | A4 d4- | d2 cB c4 | B4 d4- | d2 c2 B4- | B2 AA A4 | %9
w: A- ma-|ril- li mia|bel- la,- no|cre- di'o del mio|cor dol-|* ce de- si-|o, d'es-|* ser tu|_ l'a- mor mi-|
 G8 |: B6 AG | A4 z ^FFG | A2 ^F2 G4 | A8 | B3 G A2 G^F | G4 A4 | d6 cB | A4- A^FFG | A2 F2 E4 | %19
w: o?|Cre- di- lo|pur e se ti-|mor m'as- sa-|le,|pren- di que- sto mio|stra- le,|a- pri- m'il|pet- * to'e ve- drai|scrit- to'il co-|
 D4 z2 ^FF | G6 ^F/>G/A | ^F4 z2 AA | =B2 c4 B/>A/B | c4 z2 ^cc | d6 B>A | A8 |1 G8 :|2 G4 d2 d2 || %28
w: re, A- ma-|ril- * * *|li, A- ma-|ril- * * * *|li, A- ma-|ril- li'e'l mio'a-|mo-|re,|re, A- ma-|
 e4- ed/c/ =Bc | d6 c>=B | =B>c B>c d GB/4A/4B/4G/4-G | A8 | G8 |] %33
w: ril _ _ _ _ _|_ li'e'l mio'a-|mo- * * * * * * * * * *||re.|
V:2
 G,4 ^F,4 |"^6""^6" G,4 D,2 _E,2 |"^11""^#10" D,4 D,2 D,2 | F,3 F, F,2 G,2 | D,2 C,2 B,,4 | %5
"^6""^11""^#10" _E,2 D,2 F,2 F,2 | B,,4 B,2 ^F,2 | G,4 B,,4 |"^6     5""^11" _E,2 C,C, D,2 D,D, | %9
"^#10""^14" G,,8 |:"^7     6" G,4 _E,2 E,2 |"^11""^#10" D,4 D,,4 |"^7""^#6" D,4 E,2 E,2 | %13
 D,4 D,,4 | G,,2 G,2 D,4 | G,,2 G,2 D,4 |"^6    5" B,,4 B,,2 B,,C, | D,4 D,,4 | %18
"^11""^#10" D,4 A,,2 A,,A,, |"^14" D,,4 D,4 | G,4 G,,4 | D,,4 D,4 | G,4 G,,4 | C,4 A,,4 | %24
 ^F,,4 G,,4 |"^11""^#10""^14" D,4 D,2 D,2 |1"^-natural" G,,4 G,4 :|2 G,,4 G,,4 || C,2 D,2 E,4 | %29
 =B,,4 ^F,,4 | G,,4 G,4 |"^11""^#10""^14" D,4 D,2 D,2 | G,8 |] %33

